X: 29889
T: O'Mahony's
R: hornpipe
M: 4/4
K: Gmajor
|:ge|dBBA ~G3A|(3BAG Bd ~g3a|bage dBGA|BAAG A2 ge|
dBBA ~G3A|(3BAG Bd ~g3a|bage dBAd|B2GF G2:|
|:ga|b2gb a2ga|bage a2ga|bage dBGA|BAAG A2ge|
dBBA ~G3A|(3BAG Bd ~g3a|bage dBAd|B2GF G2:|

